X: 6988
T: Chicago, The
R: reel
M: 4/4
K: Adorian
|:cded cAGE|~G3E GAcd|ecgc acgc|eaag edcA|
cded cAGE|~G3E GAcd|eaag eged|cABG A2AB:|
|:cdef g2ef|gedc BGGA|B/c/d ef gedg|eaag ~a3A|
B/c/d ef ~g3e|~a3f ~g3e|~f3d efed|cABG A2AB:|

